svg/tree2.svg

<svg width="126" height="158" viewBox="0 0 126 158" fill="none" xmlns="http://www.w3.org/2000/svg">
<path d="M54.8333 83H74L71.7 110L74 158H51L54.8333 133.625V83Z" fill="#7B5F3E"/>
<path d="M73.157 6.79637C54.9813 -6.37576 29.0947 2.38603 26.685 9.73657C4.92919 9.73657 -1.19822 29.1419 4.65382 41.4908C-6.36178 50.6643 4.65384 66.4826 12.227 66.4826C8.44043 80.0075 30.5864 83.3398 41.8314 82.9477C55.0502 97.5312 73.9603 89.0242 81.763 82.9477C104.345 88.8281 109.99 71.6769 109.99 62.3663C130.094 60.7198 127.088 43.843 123.071 35.6104C129.956 25.9665 116.875 13.2648 109.99 13.2648C101.178 -3.90599 75.911 0.915926 73.157 6.79637Z" fill="#648C4C"/>
</svg>

<svg xmlns="http://www.w3.org/2000/svg" width="126" height="158" fill="none"><path fill="#7B5F3E" d="M54.833 83H74l-2.3 27 2.3 48H51l3.833-24.375V83Z"/><path fill="#648C4C" d="M73.157 6.796c-18.176-13.172-44.062-4.41-46.472 2.94-21.756 0-27.883 19.406-22.031 31.755-11.016 9.173 0 24.992 7.573 24.992C8.44 80.007 30.587 83.34 41.831 82.948c13.22 14.583 32.13 6.076 39.932 0 22.582 5.88 28.227-11.271 28.227-20.582 20.104-1.646 17.098-18.523 13.081-26.756 6.885-9.643-6.196-22.345-13.081-22.345C101.178-3.906 75.911.915 73.157 6.796Z"/></svg>
